assets/fc/fc-night-portrait.svg

<svg xmlns="http://www.w3.org/2000/svg" width="100%" height="100%" viewBox="0 0 48 48"><path fill="#40C4FF" d="M42.9 6.3C43.6 7.4 44 8.6 44 10c0 3.9-3.1 7-7 7-.7 0-1.3-.1-1.9-.3 1.2 2 3.4 3.3 5.9 3.3 3.9 0 7-3.1 7-7 0-3.2-2.1-5.9-5.1-6.7z"/><g fill="#B39DDB"><circle cx="31" cy="19" r="2"/><circle cx="13" cy="19" r="2"/><path d="M22 37l-5-6v-6h10v6z"/></g><path fill="#D1C4E9" d="M31 13c0-7.6-18-5-18 0v7c0 5 4 9 9 9s9-4 9-9v-7z"/><g fill="#673AB7"><circle cx="26" cy="19" r="1"/><circle cx="18" cy="19" r="1"/><path d="M22 4c-6.1 0-10 4.9-10 11v2.3l2 1.7v-5l12-4 4 4v5l2-1.7V15c0-4-1-8-6-9l-1-2h-3zM27 31s-2 1-5 1-5-1-5-1S6 33 6 44h32c0-11-11-13-11-13z"/></g></svg>

<svg xmlns="http://www.w3.org/2000/svg" width="100%" height="100%" viewBox="0 0 48 48"><path fill="#40C4FF" d="M42.9,6.3C43.6,7.4,44,8.6,44,10c0,3.9-3.1,7-7,7c-0.7,0-1.3-0.1-1.9-0.3c1.2,2,3.4,3.3,5.9,3.3 c3.9,0,7-3.1,7-7C48,9.8,45.9,7.1,42.9,6.3z"/><g fill="#B39DDB"><circle cx="31" cy="19" r="2"/><circle cx="13" cy="19" r="2"/><path d="M22 37L17 31 17 25 27 25 27 31z"/></g><path fill="#D1C4E9" d="M31,13c0-7.6-18-5-18,0c0,1.1,0,5.9,0,7c0,5,4,9,9,9s9-4,9-9C31,18.9,31,14.1,31,13z"/><g fill="#673AB7"><circle cx="26" cy="19" r="1"/><circle cx="18" cy="19" r="1"/><path d="M22 4c-6.1 0-10 4.9-10 11 0 .8 0 2.3 0 2.3l2 1.7v-5l12-4 4 4v5l2-1.7c0 0 0-1.5 0-2.3 0-4-1-8-6-9l-1-2H22zM27 31L27 31c0 0-2 1-5 1s-5-1-5-1S6 33 6 44h32C38 33 27 31 27 31z"/></g></svg>
